agir/groups/components/messages/promo-message1.svg

<svg width="280" height="192" viewBox="0 0 280 192" fill="none" xmlns="http://www.w3.org/2000/svg">
<g clip-path="url(#clip0)">
<path d="M183.977 55.4824H182.986V28.5739C182.986 24.4435 181.33 20.4822 178.382 17.5615C175.433 14.6408 171.435 13 167.266 13H109.72C105.551 13 101.553 14.6408 98.6044 17.5615C95.6563 20.4821 94 24.4434 94 28.5739V176.196C94 180.326 95.6562 184.288 98.6044 187.208C101.552 190.129 105.551 191.77 109.72 191.77H167.266C171.435 191.77 175.433 190.129 178.381 187.208C181.33 184.288 182.986 180.327 182.986 176.196V74.6364H183.977L183.977 55.4824Z" fill="#C4C4C4"/>
<g clip-path="url(#clip1)">
<path d="M178.96 28.618V175.859C178.96 178.94 177.728 181.895 175.536 184.074C173.343 186.252 170.37 187.476 167.269 187.477H109.691C106.59 187.476 103.617 186.252 101.424 184.074C99.2318 181.895 98.0001 178.94 98 175.859V28.618C98.0001 25.5367 99.2318 22.5817 101.424 20.4029C103.617 18.2241 106.59 17.0001 109.691 17H116.676C116.333 17.8382 116.202 18.7473 116.295 19.6474C116.389 20.5476 116.703 21.4111 117.211 22.1621C117.719 22.9132 118.405 23.5286 119.208 23.9544C120.012 24.3801 120.908 24.6032 121.819 24.6038H154.647C155.558 24.6032 156.454 24.3801 157.258 23.9544C158.061 23.5286 158.747 22.9131 159.255 22.1621C159.763 21.4111 160.078 20.5476 160.171 19.6474C160.264 18.7473 160.133 17.8382 159.79 17H167.269C170.37 17.0001 173.343 18.2241 175.536 20.4029C177.728 22.5817 178.96 25.5367 178.96 28.618Z" fill="#EEEEEE"/>
</g>
<path d="M211.197 167.905H139V144.2H141.735V138L147.933 144.2H211.197V167.905Z" fill="url(#paint0_linear)"/>
<path d="M208.911 146.925H141.312V165.684H208.911V146.925Z" fill="white"/>
<path d="M183.976 150.473H155.947V151.463H183.976V150.473Z" fill="#571AFF"/>
<path d="M204.481 153.278H155.947V154.351H204.481V153.278Z" fill="#E6E6E6"/>
<path d="M204.481 156.579H155.947V157.651H204.481V156.579Z" fill="#E6E6E6"/>
<path d="M174.137 159.85H156.36V160.923H174.137V159.85Z" fill="#E6E6E6"/>
<path d="M151.852 161.167C150.435 161.488 148.97 161.398 147.62 160.909C146.27 160.421 145.089 159.551 144.21 158.399C144.563 158.085 144.957 157.824 145.38 157.625C146.033 157.316 146.743 157.163 147.455 157.178C148.166 157.193 148.861 157.376 149.485 157.712C150.11 158.049 150.647 158.529 151.055 159.118C151.464 159.706 151.734 160.387 151.843 161.107C151.846 161.127 151.849 161.147 151.852 161.167Z" fill="#F4ED0F"/>
<path d="M150.325 157.352C151.375 157.352 152.226 156.484 152.226 155.413C152.226 154.342 151.375 153.474 150.325 153.474C149.274 153.474 148.423 154.342 148.423 155.413C148.423 156.484 149.274 157.352 150.325 157.352Z" fill="#2F2E41"/>
<path d="M148.504 160.314C147.39 160.314 146.314 159.91 145.472 159.178C144.63 158.446 144.08 157.433 143.922 156.326C143.764 155.22 144.009 154.093 144.612 153.153C145.215 152.213 146.136 151.523 147.205 151.209C148.274 150.895 149.42 150.978 150.433 151.443C151.446 151.909 152.258 152.725 152.719 153.742C153.181 154.76 153.262 155.91 152.947 156.982C152.632 158.054 151.942 158.977 151.004 159.58C150.258 160.06 149.39 160.315 148.504 160.314ZM148.504 151.122C147.608 151.122 146.733 151.388 145.988 151.888C145.243 152.387 144.662 153.097 144.32 153.927C143.977 154.758 143.887 155.672 144.062 156.553C144.236 157.435 144.668 158.245 145.301 158.881C145.935 159.516 146.742 159.949 147.62 160.124C148.499 160.3 149.41 160.21 150.237 159.866C151.065 159.522 151.772 158.939 152.27 158.192C152.767 157.444 153.033 156.565 153.033 155.666C153.031 154.462 152.554 153.306 151.705 152.454C150.856 151.602 149.705 151.123 148.504 151.122Z" fill="#3F3D56"/>
<path d="M251.373 91H166V119.093H169.234V126.441L176.564 119.093H251.373V91Z" fill="url(#paint1_linear)"/>
<path d="M248.997 93.8667H168.367V116.341H248.997V93.8667Z" fill="white"/>
<path d="M219.255 98.1174H185.823V99.3037H219.255V98.1174Z" fill="#571AFF"/>
<path d="M243.713 101.479H185.823V102.764H243.713V101.479Z" fill="#E6E6E6"/>
<path d="M243.713 105.433H185.823V106.718H243.713V105.433Z" fill="#E6E6E6"/>
<path d="M207.519 109.353H186.316V110.638H207.519V109.353Z" fill="#E6E6E6"/>
<path d="M178.426 108.678C177.605 110.12 176.653 110.907 175.677 110.95C174.702 110.992 173.741 110.289 172.903 108.919C173.051 108.166 173.237 107.477 173.458 106.873C173.797 105.937 174.211 105.227 174.666 104.798C175.122 104.368 175.607 104.231 176.085 104.396C176.563 104.561 177.02 105.024 177.423 105.75C177.825 106.476 178.162 107.445 178.406 108.582C178.413 108.613 178.42 108.646 178.426 108.678Z" fill="#F4ED0F"/>
<path d="M175.714 103.834C176.612 103.834 177.341 103.104 177.341 102.203C177.341 101.302 176.612 100.572 175.714 100.572C174.815 100.572 174.086 101.302 174.086 102.203C174.086 103.104 174.815 103.834 175.714 103.834Z" fill="#2F2E41"/>
<path d="M176.945 109.908C175.616 109.908 174.332 109.425 173.328 108.547C172.324 107.67 171.668 106.457 171.48 105.131C171.291 103.805 171.583 102.455 172.303 101.329C173.022 100.203 174.12 99.3757 175.395 98.9994C176.67 98.6231 178.037 98.7228 179.246 99.2804C180.454 99.8379 181.422 100.816 181.973 102.035C182.523 103.254 182.62 104.632 182.244 105.916C181.868 107.201 181.045 108.306 179.926 109.029C179.037 109.604 178.002 109.909 176.945 109.908ZM176.945 98.8954C175.876 98.8953 174.832 99.2146 173.943 99.8129C173.055 100.411 172.362 101.262 171.953 102.257C171.545 103.252 171.438 104.346 171.646 105.403C171.854 106.459 172.369 107.429 173.124 108.191C173.88 108.952 174.843 109.471 175.891 109.681C176.939 109.891 178.025 109.783 179.012 109.371C179.999 108.959 180.843 108.261 181.436 107.365C182.03 106.47 182.347 105.417 182.347 104.34C182.345 102.897 181.775 101.513 180.763 100.492C179.75 99.4712 178.377 98.8971 176.945 98.8954Z" fill="#3F3D56"/>
<path d="M37.0015 48.5027H124.25V77.1992H120.945V84.7045L113.454 77.1992H37.0015V48.5027Z" fill="url(#paint2_linear)"/>
<path d="M121.797 51.4355H39.3901V74.4293H121.797V51.4355Z" fill="white"/>
<path d="M91.3995 55.7844H57.2305V56.9981H91.3995V55.7844Z" fill="#571AFF"/>
<path d="M116.396 59.2231H57.2305V60.538H116.396V59.2231Z" fill="#E6E6E6"/>
<path d="M116.396 63.2688H57.2305V64.5836H116.396V63.2688Z" fill="#E6E6E6"/>
<path d="M79.405 67.2793H57.7344V68.5941H79.405V67.2793Z" fill="#E6E6E6"/>
<path d="M52.2384 68.8935C50.5111 69.2861 48.7246 69.1766 47.0792 68.5774C45.4338 67.9781 43.9944 66.9128 42.9224 65.5007C43.3521 65.1154 43.8324 64.7958 44.3481 64.5518C45.1448 64.1729 46.0102 63.9855 46.8779 64.004C47.7456 64.0225 48.5924 64.2464 49.3533 64.6586C50.1142 65.0707 50.769 65.6601 51.2673 66.3815C51.7657 67.1028 52.0943 67.9369 52.2279 68.8197C52.2313 68.8435 52.2353 68.8687 52.2384 68.8935Z" fill="#F4ED0F"/>
<path d="M50.3764 64.2172C51.6567 64.2172 52.6946 63.153 52.6946 61.8404C52.6946 60.5277 51.6567 59.4636 50.3764 59.4636C49.096 59.4636 48.0581 60.5277 48.0581 61.8404C48.0581 63.153 49.096 64.2172 50.3764 64.2172Z" fill="#2F2E41"/>
<path d="M48.1573 67.8477C46.7993 67.8473 45.4869 67.3529 44.4609 66.4551C43.4349 65.5573 42.7642 64.3163 42.5717 62.9599C42.3791 61.6034 42.6778 60.2224 43.4128 59.0701C44.1478 57.9179 45.2699 57.0717 46.5733 56.6867C47.8766 56.3017 49.2739 56.4038 50.5087 56.9742C51.7435 57.5446 52.7331 58.5451 53.2959 59.7921C53.8588 61.0392 53.9571 62.4492 53.573 63.7636C53.1888 65.0779 52.3479 66.2084 51.2044 66.9477C50.2951 67.536 49.2375 67.8484 48.1573 67.8477ZM48.1573 56.5803C47.0653 56.5802 45.9977 56.9069 45.0897 57.519C44.1817 58.1311 43.4739 59.0011 43.056 60.0191C42.638 61.0371 42.5286 62.1573 42.7416 63.238C42.9547 64.3187 43.4805 65.3114 44.2527 66.0905C45.0249 66.8697 46.0087 67.4002 47.0798 67.6152C48.1509 67.8301 49.261 67.7198 50.2699 67.298C51.2788 66.8763 52.1411 66.1622 52.7478 65.246C53.3544 64.3298 53.6781 63.2526 53.678 62.1507C53.6764 60.6739 53.0942 59.258 52.0592 58.2137C51.0243 57.1694 49.621 56.582 48.1573 56.5803Z" fill="#3F3D56"/>
<path d="M9.42023 147.849H118.343V112.063H114.217V102.704L104.865 112.063H9.42023V147.849Z" fill="url(#paint3_linear)"/>
<path d="M114.958 116.165H12.8511V144.591H114.958V116.165Z" fill="white"/>
<path d="M77.2941 121.542H34.9565V123.042H77.2941V121.542Z" fill="#571AFF"/>
<path d="M108.267 125.793H34.9565V127.418H108.267V125.793Z" fill="#E6E6E6"/>
<path d="M108.267 130.794H34.9565V132.42H108.267V130.794Z" fill="#E6E6E6"/>
<path d="M62.4323 135.752H35.5811V137.377H62.4323V135.752Z" fill="#E6E6E6"/>
<path d="M29.3968 135.867C27.6881 137.006 25.7084 137.627 23.6797 137.661C21.6509 137.694 19.6533 137.139 17.9106 136.057C18.2172 135.463 18.6056 134.919 19.0636 134.442C19.7702 133.702 20.6301 133.142 21.5774 132.803C22.5246 132.463 23.5339 132.355 24.5277 132.485C25.5215 132.615 26.4734 132.981 27.3102 133.554C28.1471 134.128 28.8466 134.893 29.3551 135.791C29.3685 135.816 29.3833 135.841 29.3968 135.867Z" fill="#F4ED0F"/>
<path d="M23.5053 131.533C25.4029 131.533 26.9412 129.985 26.9412 128.074C26.9412 126.164 25.4029 124.615 23.5053 124.615C21.6076 124.615 20.0693 126.164 20.0693 128.074C20.0693 129.985 21.6076 131.533 23.5053 131.533Z" fill="#2F2E41"/>
<path d="M21.1304 127.659C21.7147 128.064 22.4083 128.28 23.1181 128.277C22.8649 128.454 22.5767 128.573 22.2733 128.627C23.2169 128.831 24.1922 128.836 25.138 128.643C25.3483 128.609 25.5511 128.539 25.7377 128.436C25.8307 128.384 25.9117 128.312 25.9755 128.227C26.0393 128.141 26.0844 128.042 26.1079 127.938C26.1707 127.576 25.891 127.248 25.6002 127.026C25.155 126.693 24.6418 126.463 24.0975 126.353C23.5532 126.244 22.9916 126.258 22.4533 126.393C22.1017 126.485 21.7496 126.639 21.5212 126.924C21.2929 127.208 21.2253 127.646 21.4428 127.939L21.1304 127.659Z" fill="#2F2E41"/>
<path d="M23.7143 136.455C22.0316 136.454 20.4054 135.843 19.1342 134.733C17.863 133.623 17.0318 132.089 16.7933 130.412C16.5548 128.735 16.9248 127.028 17.8355 125.603C18.7462 124.179 20.1366 123.133 21.7515 122.657C23.3665 122.181 25.0978 122.307 26.6278 123.012C28.1578 123.717 29.3839 124.954 30.0813 126.496C30.7787 128.038 30.9006 129.781 30.4246 131.406C29.9486 133.031 28.9066 134.428 27.4898 135.342C26.3632 136.07 25.0527 136.456 23.7143 136.455ZM23.7143 122.525C22.3612 122.525 21.0384 122.929 19.9133 123.686C18.7882 124.443 17.9112 125.518 17.3934 126.777C16.8755 128.035 16.74 129.42 17.0039 130.756C17.2679 132.092 17.9194 133.319 18.8762 134.283C19.833 135.246 21.052 135.902 22.3792 136.167C23.7063 136.433 25.0819 136.297 26.3319 135.775C27.582 135.254 28.6504 134.371 29.4021 133.238C30.1538 132.106 30.5549 130.774 30.5548 129.412C30.5527 127.586 29.8314 125.836 28.549 124.545C27.2666 123.254 25.5279 122.527 23.7143 122.525Z" fill="#3F3D56"/>
<path d="M276.009 23H141V67.2778H146.114V78.8584L157.706 67.2778H276.009V23Z" fill="url(#paint4_linear)"/>
<path d="M272.252 27.5183H144.743V62.9406H272.252V27.5183Z" fill="white"/>
<path d="M225.218 34.218H172.348V36.0877H225.218V34.218Z" fill="#571AFF"/>
<path d="M263.896 39.5154H172.348V41.5409H263.896V39.5154Z" fill="#E6E6E6"/>
<path d="M263.896 45.7478H172.348V47.7733H263.896V45.7478Z" fill="#E6E6E6"/>
<path d="M206.659 51.9258H173.128V53.9513H206.659V51.9258Z" fill="#E6E6E6"/>
<path d="M165.405 52.0684C163.271 53.4879 160.799 54.262 158.266 54.3038C155.732 54.3457 153.238 53.6538 151.062 52.3055C151.444 51.5652 151.929 50.887 152.501 50.2926C153.384 49.3716 154.458 48.6729 155.64 48.2502C156.823 47.8276 158.084 47.6923 159.325 47.8548C160.566 48.0172 161.755 48.473 162.8 49.1871C163.845 49.9013 164.718 50.8549 165.353 51.9745C165.37 52.0048 165.388 52.0366 165.405 52.0684Z" fill="#F4ED0F"/>
<path d="M158.048 46.6687C160.418 46.6687 162.339 44.7389 162.339 42.3584C162.339 39.9779 160.418 38.0481 158.048 38.0481C155.678 38.0481 153.757 39.9779 153.757 42.3584C153.757 44.7389 155.678 46.6687 158.048 46.6687Z" fill="#2F2E41"/>
<path d="M155.082 41.8407C155.812 42.346 156.678 42.6149 157.564 42.6113C157.248 42.8315 156.888 42.9803 156.509 43.0473C157.688 43.3012 158.906 43.3081 160.087 43.0675C160.349 43.0252 160.603 42.9378 160.836 42.8091C160.952 42.744 161.053 42.655 161.133 42.548C161.212 42.441 161.268 42.3184 161.298 42.1881C161.376 41.7377 161.027 41.3284 160.664 41.0526C160.108 40.6368 159.467 40.3503 158.787 40.2139C158.108 40.0774 157.406 40.0945 156.734 40.2637C156.295 40.3777 155.855 40.5703 155.57 40.9245C155.285 41.2786 155.201 41.8246 155.472 42.1893L155.082 41.8407Z" fill="#2F2E41"/>
<path d="M158.309 52.8016C156.208 52.801 154.177 52.0392 152.59 50.6562C151.002 49.2731 149.964 47.3614 149.666 45.2718C149.368 43.1821 149.831 41.0546 150.968 39.2796C152.105 37.5045 153.841 36.2009 155.858 35.6078C157.875 35.0147 160.037 35.172 161.947 36.0507C163.858 36.9294 165.389 38.4707 166.26 40.3918C167.131 42.313 167.283 44.4851 166.689 46.5099C166.094 48.5346 164.793 50.2762 163.024 51.4151C161.617 52.3214 159.98 52.8027 158.309 52.8016ZM158.309 35.444C156.619 35.4438 154.968 35.947 153.563 36.89C152.158 37.8329 151.062 39.1733 150.416 40.7415C149.769 42.3097 149.6 44.0354 149.929 45.7002C150.259 47.365 151.073 48.8943 152.267 50.0946C153.462 51.2949 154.985 52.1123 156.642 52.4434C158.299 52.7745 160.017 52.6045 161.578 51.9548C163.139 51.3051 164.473 50.205 165.412 48.7936C166.351 47.3821 166.852 45.7227 166.851 44.0253C166.849 41.7502 165.948 39.569 164.347 37.9602C162.745 36.3515 160.574 35.4466 158.309 35.444Z" fill="#3F3D56"/>
</g>
<defs>
<linearGradient id="paint0_linear" x1="197.197" y1="157.416" x2="197.197" y2="135.421" gradientUnits="userSpaceOnUse">
<stop stop-color="#8F00FF"/>
<stop offset="1" stop-color="#571AFF"/>
</linearGradient>
<linearGradient id="paint1_linear" x1="234.818" y1="103.43" x2="234.818" y2="129.497" gradientUnits="userSpaceOnUse">
<stop stop-color="#8F00FF"/>
<stop offset="1" stop-color="#571AFF"/>
</linearGradient>
<linearGradient id="paint2_linear" x1="53.9205" y1="61.1999" x2="53.9205" y2="87.8267" gradientUnits="userSpaceOnUse">
<stop stop-color="#8F00FF"/>
<stop offset="1" stop-color="#571AFF"/>
</linearGradient>
<linearGradient id="paint3_linear" x1="30.5422" y1="132.015" x2="30.5422" y2="98.8107" gradientUnits="userSpaceOnUse">
<stop stop-color="#8F00FF"/>
<stop offset="1" stop-color="#571AFF"/>
</linearGradient>
<linearGradient id="paint4_linear" x1="249.829" y1="42.5915" x2="249.829" y2="83.6758" gradientUnits="userSpaceOnUse">
<stop stop-color="#8F00FF"/>
<stop offset="1" stop-color="#571AFF"/>
</linearGradient>
<clipPath id="clip0">
<rect width="280" height="192" fill="white"/>
</clipPath>
<clipPath id="clip1">
<rect width="80.9599" height="170.477" fill="white" transform="translate(98 17)"/>
</clipPath>
</defs>
</svg>

<svg width="280" height="192" fill="none" xmlns="http://www.w3.org/2000/svg"><g clip-path="url(#a)"><path d="M183.977 55.482h-.991V28.574c0-4.13-1.656-8.092-4.604-11.013A15.798 15.798 0 0 0 167.266 13H109.72c-4.169 0-8.167 1.64-11.116 4.561A15.5 15.5 0 0 0 94 28.575v147.622a15.5 15.5 0 0 0 4.604 11.012 15.793 15.793 0 0 0 11.116 4.562h57.546c4.169 0 8.167-1.641 11.115-4.562a15.495 15.495 0 0 0 4.605-11.012V74.636h.991V55.482Z" fill="#C4C4C4"/><g clip-path="url(#b)"><path d="M178.96 28.618v147.241c0 3.081-1.232 6.036-3.424 8.215a11.737 11.737 0 0 1-8.267 3.403h-57.578a11.737 11.737 0 0 1-8.267-3.403A11.583 11.583 0 0 1 98 175.859V28.618c0-3.081 1.232-6.036 3.424-8.215A11.73 11.73 0 0 1 109.691 17h6.985a5.498 5.498 0 0 0 .535 5.162 5.548 5.548 0 0 0 1.997 1.792c.804.426 1.7.65 2.611.65h32.828c.911 0 1.807-.224 2.611-.65a5.549 5.549 0 0 0 1.997-1.792A5.497 5.497 0 0 0 159.79 17h7.479a11.73 11.73 0 0 1 8.267 3.403 11.583 11.583 0 0 1 3.424 8.215Z" fill="#EEE"/></g><path d="M211.197 167.905H139V144.2h2.735V138l6.198 6.2h63.264v23.705Z" fill="url(#c)"/><path d="M208.911 146.925h-67.599v18.759h67.599v-18.759Z" fill="#fff"/><path d="M183.976 150.473h-28.029v.99h28.029v-.99Z" fill="#571AFF"/><path d="M204.481 153.278h-48.534v1.073h48.534v-1.073Zm0 3.301h-48.534v1.072h48.534v-1.072Zm-30.344 3.271H156.36v1.073h17.777v-1.073Z" fill="#E6E6E6"/><path d="M151.852 161.167a7.527 7.527 0 0 1-4.232-.258 7.495 7.495 0 0 1-3.41-2.51 4.901 4.901 0 0 1 1.17-.774 4.624 4.624 0 0 1 2.075-.447 4.479 4.479 0 0 1 3.6 1.94 4.72 4.72 0 0 1 .788 1.989l.009.06Z" fill="#F4ED0F"/><path d="M150.325 157.352c1.05 0 1.901-.868 1.901-1.939 0-1.071-.851-1.939-1.901-1.939-1.051 0-1.902.868-1.902 1.939 0 1.071.851 1.939 1.902 1.939Z" fill="#2F2E41"/><path d="M148.504 160.314a4.621 4.621 0 0 1-3.032-1.136 4.658 4.658 0 0 1-.86-6.025 4.632 4.632 0 0 1 2.593-1.944 4.617 4.617 0 0 1 3.228.234 4.639 4.639 0 0 1 2.286 2.299 4.66 4.66 0 0 1 .228 3.24 4.645 4.645 0 0 1-1.943 2.598 4.611 4.611 0 0 1-2.5.734Zm0-9.192a4.533 4.533 0 0 0-4.184 2.805 4.557 4.557 0 0 0 .981 4.954 4.53 4.53 0 0 0 2.319 1.243c.879.176 1.79.086 2.617-.258a4.536 4.536 0 0 0 2.033-1.674 4.566 4.566 0 0 0 .763-2.526 4.562 4.562 0 0 0-1.328-3.212 4.524 4.524 0 0 0-3.201-1.332Z" fill="#3F3D56"/><path d="M251.373 91H166v28.093h3.234v7.348l7.33-7.348h74.809V91Z" fill="url(#d)"/><path d="M248.997 93.867h-80.63v22.474h80.63V93.867Z" fill="#fff"/><path d="M219.255 98.117h-33.432v1.187h33.432v-1.187Z" fill="#571AFF"/><path d="M243.713 101.479h-57.89v1.285h57.89v-1.285Zm0 3.954h-57.89v1.285h57.89v-1.285Zm-36.194 3.92h-21.203v1.285h21.203v-1.285Z" fill="#E6E6E6"/><path d="M178.426 108.678c-.821 1.442-1.773 2.229-2.749 2.272-.975.042-1.936-.661-2.774-2.031a13.68 13.68 0 0 1 .555-2.046c.339-.936.753-1.646 1.208-2.075.456-.43.941-.567 1.419-.402.478.165.935.628 1.338 1.354.402.726.739 1.695.983 2.832l.02.096Z" fill="#F4ED0F"/><path d="M175.714 103.834a1.63 1.63 0 0 0 1.627-1.631 1.63 1.63 0 0 0-1.627-1.631 1.63 1.63 0 0 0-1.628 1.631 1.63 1.63 0 0 0 1.628 1.631Z" fill="#2F2E41"/><path d="M176.945 109.908a5.493 5.493 0 0 1-3.617-1.361 5.573 5.573 0 0 1-1.848-3.416 5.594 5.594 0 0 1 .823-3.802 5.528 5.528 0 0 1 3.092-2.33 5.484 5.484 0 0 1 3.851.281 5.547 5.547 0 0 1 2.727 2.755 5.61 5.61 0 0 1 .271 3.881 5.565 5.565 0 0 1-2.318 3.113 5.479 5.479 0 0 1-2.981.879Zm0-11.013c-1.069 0-2.113.32-3.002.918a5.44 5.44 0 0 0-1.99 2.444 5.496 5.496 0 0 0-.307 3.146 5.461 5.461 0 0 0 1.478 2.788 5.396 5.396 0 0 0 2.767 1.49 5.364 5.364 0 0 0 3.121-.31 5.405 5.405 0 0 0 2.424-2.006 5.472 5.472 0 0 0-.673-6.873 5.388 5.388 0 0 0-3.818-1.597Z" fill="#3F3D56"/><path d="M37.002 48.503h87.248v28.696h-3.305v7.505l-7.491-7.505H37.002V48.503Z" fill="url(#e)"/><path d="M121.797 51.435H39.39V74.43h82.407V51.435Z" fill="#fff"/><path d="M91.4 55.784H57.23v1.214H91.4v-1.214Z" fill="#571AFF"/><path d="M116.396 59.223H57.23v1.315h59.166v-1.315Zm0 4.046H57.23v1.315h59.166v-1.315ZM79.405 67.28h-21.67v1.314h21.67V67.28Z" fill="#E6E6E6"/><path d="M52.238 68.894a9.137 9.137 0 0 1-5.159-.317 9.151 9.151 0 0 1-4.157-3.076c.43-.386.91-.705 1.426-.95a5.611 5.611 0 0 1 2.53-.547 5.434 5.434 0 0 1 2.475.655 5.527 5.527 0 0 1 1.914 1.722c.499.722.827 1.556.96 2.439l.011.074Z" fill="#F4ED0F"/><path d="M50.376 64.217c1.28 0 2.319-1.064 2.319-2.377 0-1.312-1.038-2.376-2.319-2.376-1.28 0-2.318 1.064-2.318 2.376 0 1.313 1.038 2.377 2.318 2.377Z" fill="#2F2E41"/><path d="M48.157 67.848a5.615 5.615 0 0 1-3.696-1.393 5.736 5.736 0 0 1-1.048-7.385 5.65 5.65 0 0 1 3.16-2.383 5.598 5.598 0 0 1 3.936.287 5.67 5.67 0 0 1 2.787 2.818 5.743 5.743 0 0 1 .277 3.972 5.69 5.69 0 0 1-2.369 3.184 5.61 5.61 0 0 1-3.047.9Zm0-11.268c-1.092 0-2.16.327-3.067.939a5.56 5.56 0 0 0-2.034 2.5 5.618 5.618 0 0 0-.314 3.219 5.587 5.587 0 0 0 1.51 2.853 5.506 5.506 0 0 0 2.828 1.524 5.475 5.475 0 0 0 3.19-.317 5.533 5.533 0 0 0 2.478-2.052 5.607 5.607 0 0 0-.689-7.032 5.502 5.502 0 0 0-3.902-1.634Z" fill="#3F3D56"/><path d="M9.42 147.849h108.923v-35.786h-4.126v-9.359l-9.352 9.359H9.42v35.786Z" fill="url(#f)"/><path d="M114.958 116.165H12.851v28.426h102.107v-28.426Z" fill="#fff"/><path d="M77.294 121.542H34.957v1.5h42.337v-1.5Z" fill="#571AFF"/><path d="M108.267 125.793h-73.31v1.625h73.31v-1.625Zm0 5.001h-73.31v1.626h73.31v-1.626Zm-45.835 4.958h-26.85v1.625h26.85v-1.625Z" fill="#E6E6E6"/><path d="M29.397 135.867a10.621 10.621 0 0 1-5.717 1.794 10.6 10.6 0 0 1-5.77-1.604 6.9 6.9 0 0 1 1.154-1.615 6.51 6.51 0 0 1 2.513-1.639 6.303 6.303 0 0 1 2.95-.318c.994.13 1.946.496 2.783 1.069a6.728 6.728 0 0 1 2.045 2.237l.042.076Z" fill="#F4ED0F"/><path d="M23.505 131.533c1.898 0 3.436-1.548 3.436-3.459 0-1.91-1.538-3.459-3.436-3.459-1.897 0-3.436 1.549-3.436 3.459 0 1.911 1.539 3.459 3.436 3.459Z" fill="#2F2E41"/><path d="M21.13 127.659a3.464 3.464 0 0 0 1.988.618 2.123 2.123 0 0 1-.845.35 6.965 6.965 0 0 0 2.865.016 1.86 1.86 0 0 0 .6-.207.766.766 0 0 0 .37-.498c.063-.362-.217-.69-.508-.912a3.749 3.749 0 0 0-1.503-.673 3.74 3.74 0 0 0-1.644.04c-.351.092-.703.246-.932.531-.228.284-.296.722-.078 1.015l-.313-.28Z" fill="#2F2E41"/><path d="M23.714 136.455a6.969 6.969 0 0 1-4.58-1.722 7.054 7.054 0 0 1-2.34-4.321 7.08 7.08 0 0 1 1.041-4.809 7 7 0 0 1 3.916-2.946 6.952 6.952 0 0 1 4.877.355 7.016 7.016 0 0 1 3.453 3.484 7.085 7.085 0 0 1 .344 4.91 7.035 7.035 0 0 1-2.935 3.936 6.945 6.945 0 0 1-3.776 1.113Zm0-13.93a6.808 6.808 0 0 0-3.8 1.161 6.876 6.876 0 0 0-2.52 3.091 6.929 6.929 0 0 0 1.482 7.506 6.822 6.822 0 0 0 3.503 1.884 6.79 6.79 0 0 0 3.953-.392 6.847 6.847 0 0 0 3.07-2.537 6.917 6.917 0 0 0-.853-8.693 6.826 6.826 0 0 0-4.835-2.02Z" fill="#3F3D56"/><path d="M276.009 23H141v44.278h5.114v11.58l11.592-11.58h118.303V23Z" fill="url(#g)"/><path d="M272.252 27.518H144.743v35.423h127.509V27.518Z" fill="#fff"/><path d="M225.218 34.218h-52.87v1.87h52.87v-1.87Z" fill="#571AFF"/><path d="M263.896 39.515h-91.548v2.026h91.548v-2.026Zm0 6.233h-91.548v2.025h91.548v-2.025Zm-57.237 6.178h-33.531v2.025h33.531v-2.025Z" fill="#E6E6E6"/><path d="M165.405 52.068a13.277 13.277 0 0 1-7.139 2.236 13.249 13.249 0 0 1-7.204-1.998 8.57 8.57 0 0 1 1.439-2.013 8.159 8.159 0 0 1 3.139-2.043 7.898 7.898 0 0 1 3.685-.395 7.998 7.998 0 0 1 3.475 1.332 8.374 8.374 0 0 1 2.553 2.788l.052.093Z" fill="#F4ED0F"/><path d="M158.048 46.669c2.37 0 4.291-1.93 4.291-4.31 0-2.381-1.921-4.31-4.291-4.31s-4.291 1.929-4.291 4.31c0 2.38 1.921 4.31 4.291 4.31Z" fill="#2F2E41"/><path d="M155.082 41.84a4.33 4.33 0 0 0 2.482.771c-.316.22-.676.37-1.055.436a8.723 8.723 0 0 0 3.578.02c.262-.042.516-.13.749-.258a.954.954 0 0 0 .462-.62c.078-.451-.271-.86-.634-1.136a4.666 4.666 0 0 0-3.93-.79c-.439.115-.879.307-1.164.662-.285.354-.369.9-.098 1.264l-.39-.348Z" fill="#2F2E41"/><path d="M158.309 52.802a8.709 8.709 0 0 1-5.719-2.146 8.784 8.784 0 0 1-2.924-5.384 8.807 8.807 0 0 1 1.302-5.992 8.735 8.735 0 0 1 4.89-3.672 8.696 8.696 0 0 1 6.089.443 8.753 8.753 0 0 1 4.313 4.34 8.813 8.813 0 0 1 .429 6.119 8.774 8.774 0 0 1-3.665 4.905 8.697 8.697 0 0 1-4.715 1.387Zm0-17.358c-1.69 0-3.341.503-4.746 1.446a8.57 8.57 0 0 0-3.147 3.852 8.603 8.603 0 0 0 1.851 9.353 8.534 8.534 0 0 0 4.375 2.348 8.506 8.506 0 0 0 4.936-.488 8.554 8.554 0 0 0 3.834-3.161 8.61 8.61 0 0 0-1.065-10.833 8.534 8.534 0 0 0-6.038-2.517Z" fill="#3F3D56"/></g><defs><linearGradient id="c" x1="197.197" y1="157.416" x2="197.197" y2="135.421" gradientUnits="userSpaceOnUse"><stop stop-color="#8F00FF"/><stop offset="1" stop-color="#571AFF"/></linearGradient><linearGradient id="d" x1="234.818" y1="103.43" x2="234.818" y2="129.497" gradientUnits="userSpaceOnUse"><stop stop-color="#8F00FF"/><stop offset="1" stop-color="#571AFF"/></linearGradient><linearGradient id="e" x1="53.92" y1="61.2" x2="53.92" y2="87.827" gradientUnits="userSpaceOnUse"><stop stop-color="#8F00FF"/><stop offset="1" stop-color="#571AFF"/></linearGradient><linearGradient id="f" x1="30.542" y1="132.015" x2="30.542" y2="98.811" gradientUnits="userSpaceOnUse"><stop stop-color="#8F00FF"/><stop offset="1" stop-color="#571AFF"/></linearGradient><linearGradient id="g" x1="249.829" y1="42.592" x2="249.829" y2="83.676" gradientUnits="userSpaceOnUse"><stop stop-color="#8F00FF"/><stop offset="1" stop-color="#571AFF"/></linearGradient><clipPath id="a"><path fill="#fff" d="M0 0h280v192H0z"/></clipPath><clipPath id="b"><path fill="#fff" transform="translate(98 17)" d="M0 0h80.96v170.477H0z"/></clipPath></defs></svg>
